!!!!SEGMENT: pl-kk--kk-i-389--007-002_anonim--missa-no-7-kyrie.krn
!!!cenid: 17xx:2500
!!!COM: Anonim
!!!COM-rismID: pe30004985
!!!CDT:
!!!CNT:
!!!OPR: [Missa] No. 7.
!!!OTL: Kyrie
!!!OMV: 002
!!!PDT:
!!!AGN: Sacred; Mass
!!!YEC: Copyright 2022 Narodowy Instytut Fryderyka Chopina (https://polishscores.org)
!!!YEM: License CC-BY-4.0 (https://creativecommons.org/licenses/by/4.0)
!!!SMS-siglum: PL-Kk
!!!SMS-shelfmark: Kk.I.389
!!!SMS-variant:
!!!SMS-altvar:
!!!SMS-shelfwork: 007-002 M
!!!NIFC-rismSourceID: 1001146182
!!!NIFC-rismChildID: 1001147245
!!!NIFC-islandoraID: pl-kk:6976
!!!URL-pdf-islandora: https://repozytorium.nifc.pl/islandora/object/pl-kk%3A6976/datastream/PDF/view
!!!URL-scan: https://polish.musicsources.pl/pl/lokalizacje/galeria/rekopisy/5999/1 @EN{Scan on Polish Music Sources Website} @PL{Skany w portalu Dziedzictwo Muzyki Polskiej w otwartym dostępie}
!!!IIIF:
!!!ONB-nifc: UWAGA: S – skan 12-13, A – 31-32, T – 50-51, B – 69-70. Części Mszy: Rorate, Kyrie, Gloria, Graduale, Sanctus, Benedictus, Agnus.
!!!AIN: 1 alto 1 bass 1 soprn 1 tenor
!!!key: F
**kern	**text	**kern	**text	**kern	**text	**kern	**text
*part4	*part4	*part3	*part3	*part2	*part2	*part1	*part1
*staff4	*staff4	*staff3	*staff3	*staff2	*staff2	*staff1	*staff1
*Ibass	*	*Itenor	*	*Ialto	*	*Isoprn	*
*I"Basso.	*	*I"Tenore.	*	*I"Alto.	*	*I"Soprano.	*
*I'B	*	*I'T	*	*I'A	*	*I'S	*
*I'bass	*	*I'tenor	*	*I'alto	*	*I'soprn	*
*I'Cvox	*	*I'Cvox	*	*I'Cvox	*	*I'Cvox	*
*clefF4	*	*clefC4	*	*clefC3	*	*clefC1	*
*k[]	*	*k[]	*	*k[]	*	*k[]	*
*F:	*	*F:	*	*F:	*	*F:	*
*M4/4	*	*M4/4	*	*M4/4	*	*M4/4	*
*met(C.)	*	*met(C.)	*	*met(C.)	*	*met(C.)	*
=1	=1	=1	=1	=1	=1	=1	=1
*	*	*	*	*	*	*all\right	*
4C/	Ky-	4G/	Ky-	4e\	Ky-	4cc\	Ky-
4C/	-ri-	4G/	-ri-	4e\	-ri-	4cc\	-ri-
4C/	-e	4G/	-e	4e\	-e	4cc\	-e
8r	.	8r	.	8r	.	8r	.
8C/	e-	8G/	e-	8g\	e-	8ee\	e-
=2	=2	=2	=2	=2	=2	=2	=2
*2\right	*	*2\right	*	*	*	*	*
2G\	-lei-	2B\	-lei-	8f\L	-le-	8dd\L	-le-
.	.	.	.	8e\	.	8cc\	.
.	.	.	.	8f\	.	8dd\	.
.	.	.	.	8d\J	-i-	8b\J	-i-
4C/	-son,	4G/	-son	4e\	-son,	4cc\	-son,
4r	.	4r	.	4r	.	4r	.
=3	=3	=3	=3	=3	=3	=3	=3
4C/	Ky-	4G/	Ky-	4e\	Ky-	4cc\	Ky-
4C/	-ri-	4G/	-ri-	4e\	-ri-	4cc\	-ri-
4C/	-e	4G/	-e	4e\	-e	4cc\	-e
8r	.	8r	.	8r	.	8r	.
8C/	e-	8G/	e-	8e\	e-	8cc\	e-
=4	=4	=4	=4	=4	=4	=4	=4
*	*	*	*	*	*	*2\right	*
2G\	-lei-	8F/L	-le-	8d\L	-le-	2b\	-lei-
.	.	8E/	.	8c\	.	.	.
.	.	8F/	.	8d\	.	.	.
.	.	8D/J	-i-	8B\J	-i-	.	.
4C/	-son	4E/	-son	4c\	-son	4g\	-son
4c\	Ky-	4c\	Ky-	4e\	Ky-	4g\	e-
=5	=5	=5	=5	=5	=5	=5	=5
4c\	.	4d\	.	4f#X\	.	4a\	-le-
4B\	-ri-	4d\	-ri-	4g\	-ri-	4b\	.
!	!	!	!	!LO:LB:g=original	!	!LO:LB:g=original	!
4A\	-e	4d\	-e	4f#X\	-e	4cc\	.
4G\	e-	4d\	e-	4g\	e-	4b\	.
!LO:LB:g=original	!	!LO:LB:g=original	!	!	!	!	!
=6	=6	=6	=6	=6	=6	=6	=6
8c\L	-le-	2d\	-lei-	4e\	-lei-	2a\	-i-
8A\J	.	.	.	.	.	.	.
!LO:TX:t=P:problem:mixed beam	!	!	!	!	!	!	!
8d\L	-i-	.	.	4f#X\	.	.	.
8D/J	.	.	.	.	.	.	.
4G\	-son,	4d\	-son	4g\	-son,	4b\	-son,
4r	.	4r	.	4r	.	4r	.
=7	=7	=7	=7	=7	=7	=7	=7
4G#X\	Chri-	4B\	Chri-	4e\	Chri-	4dd\	Chri-
4G#\	-ste	4B\	-ste	4e\	-ste	4dd\	-ste
8A\L	e-	8e\L	e-	8c\L	e-	8cc\L	e-
8B\	.	8d\	.	8d\	.	8b\	.
8c\	.	8c\	.	8e\	.	8a\	.
8A\J	.	8e\J	.	8c\J	.	8cc\J	.
=8	=8	=8	=8	=8	=8	=8	=8
4D\	-le-	4d\	-le-	4f\	-le-	2b\	-lei-
4E\	-i-	4G#X/	-i-	4e\	-i-	.	.
4AA/	-son	4A/	-son	4e\	-son	4cc\	-son
4r	.	4r	.	4r	.	4r	.
=9	=9	=9	=9	=9	=9	=9	=9
4F#X\	Chri-	4A\	Chri-	4d\	Chri-	4cc\	Chri-
4F#\	-ste	4A\	-ste	4d\	-ste	4cc\	-ste
*	*	*	*	*2\right	*	*	*
8G\L	e-	8d\L	e-	2d\	e-	8b\L	e-
8A\	.	8c\	.	.	.	8cc\	.
8B\	.	8B\	.	.	.	8dd\	.
8G\J	.	8d\J	.	.	.	8b\J	.
=10	=10	=10	=10	=10	=10	=10	=10
4C/	-le-	2F#X/	-lei-	4e\	-le-	2a\	-lei-
4D/	-i-	.	.	4d\	-i-	.	.
4GG/	-son	4G/	-son	4d\	-son,	4b\	-son
4r	.	4r	.	4r	.	4r	.
!LO:LB:g=original	!	!	!	!LO:LB:g=original	!	!	!
=11	=11	=11	=11	=11	=11	=11	=11
2G\	Chri-	2d\	Chri-	2g\	Chri-	2b\	Chri-
!	!	!	!	!	!	!LO:LB:g=original	!
4A\	-ste	4c\	-ste	4f#X\	-ste	4cc\	-ste
4B\	e-	4B\	e-	4fn\	e-	4dd\	e-
=12	=12	=12	=12	=12	=12	=12	=12
8c\L	-le-	2G/	-lei-	2e\	-lei-	2cc\	-lei-
8G\J	.	.	.	.	.	.	.
8E\L	-i-	.	.	.	.	.	.
8C\J	.	.	.	.	.	.	.
!	!	!LO:LB:g=original	!	!	!	!	!
4G\	-son	8G/	-son	8d\	-son	8b\	-son
.	.	8G/	e-	8d\	e-	8b\	e-
4r	.	8A\	-lei-	16g\LL	-lei-	16ee\LL	-lei-
.	.	.	.	16f\JJ	.	16dd\	.
.	.	8B\	-son	16e\LL	-son	16cc\	-son
.	.	.	.	16d\JJ	.	16b\JJ	.
=13	=13	=13	=13	=13	=13	=13	=13
4C/	Ky-	4c\	Ky-	4e\	Ky-	4cc\	Ky-
4C/	-ri-	4G/	-ri-	4e\	-ri-	4cc\	-ri-
4C/	-e	4G/	-e	4e\	-e	4b-X\	-e
8r	.	8r	.	8r	.	8r	.
8C/	e-	8G/	e-	8e\	e-	8b-\	e-
=14	=14	=14	=14	=14	=14	=14	=14
8F\L	-le-	2c\	-lei-	8f\L	-le-	8a\L	-le-
16A\L	.	.	.	8g\	.	8b-X\	.
16B-X\JJ	.	.	.	.	.	.	.
!LO:TX:t=P:problem:mixed beam	!	!	!	!	!	!	!
8c\L	.	.	.	8f\	.	8a\	.
8C/J	-i-	.	.	8e\J	-i-	8g\J	-i-
4F\	-son	4c\	-son	4f\	-son,	4a\	-son
4r	.	4r	.	4r	.	4r	.
=15	=15	=15	=15	=15	=15	=15	=15
4D\	Ky-	4A\	Ky-	4f#X\	Ky-	4dd\	Ky-
4D\	-ri-	4A\	-ri-	4f#\	-ri-	4dd\	-ri-
4D\	-e	4A\	-e	4f#\	-e	4cc\	-e
8r	.	8r	.	8r	.	8r	.
8D\	e-	8A\	e-	8f#\	e-	8cc\	e-
!LO:LB:g=original	!	!	!	!LO:LB:g=original	!	!	!
=16	=16	=16	=16	=16	=16	=16	=16
8G\L	-le-	2d\	-lei-	8g\L	-le-	8b\L	-le-
8B\	.	.	.	8a\	.	8cc\	.
8d\	.	.	.	8g\	.	8b\	.
8D\J	-i-	.	.	8f#X\J	-i-	8a\J	-i-
!	!	!	!	!	!	!LO:LB:g=original	!
4G\	-son	4d\	-son	4g\	-son,	4b\	-son
4r	.	4r	.	4r	.	4r	.
=17	=17	=17	=17	=17	=17	=17	=17
4G\	Ky-	4B\	Ky-	4g\	Ky-	4dd\	Ky-
4G\	-ri-	4B\	-ri-	4g\	-ri-	4dd\	-ri-
4G\	-e	4B\	-e	4g\	-e	4dd\	-e
8r	.	8r	.	8r	.	8r	.
8G\	e-	8B\	e-	8g\	e-	8dd\	e-
=18	=18	=18	=18	=18	=18	=18	=18
4A\	-le-	4c\	-le-	4f#X\	-le-	4cc\	-le-
4B\	.	4d\	-i-	4fn\	-i-	4b\	-i-
!	!	!LO:LB:g=original	!	!	!	!	!
8c\L	.	4G/	-son	4e\	-son	4cc\	-son
8G\J	-i-	.	.	.	.	.	.
8E\L	-son	4G/	e-	4e\	e-	4cc\	e-
8C\J	e-	.	.	.	.	.	.
=19	=19	=19	=19	=19	=19	=19	=19
4F\	-le-	4A/	-le-	4d\	-le-	4dd\	-le-
4G\	-i-	4G/	-i-	4f\	-i-	4b\	-i-
4C/	-son	4G/	-son	4e\	-son	4cc\	-son
4C/	e-	4G/	e-	4e\	e-	4cc\	e-
=20	=20	=20	=20	=20	=20	=20	=20
1C	-lei-	1A	-lei-	1f	-lei-	1cc	-lei-
=21	=21	=21	=21	=21	=21	=21	=21
!LO:TX:b:i:t=Seque Gloria.	!	!LO:TX:b:i:t=Seque Gloria.	!	!LO:TX:b:i:t=Seque Gloria.	!	!LO:TX:b:i:t=Seque Gloria.	!
1C	-son.	1G	-son.	1e	-son.	1cc	-son.
==	==	==	==	==	==	==	==
*-	*-	*-	*-	*-	*-	*-	*-
!!!system-decoration: [(s1,s2,s3,s4)]
!!!ENC: Anastazja Marusiak
!!!END: 2023-11-09
!!!YEM: Copyright © 2023 by [Copyright Holder]
!!!ENC: Leszek Kubiak
!!!END: 2024-01-10
